X: 37259
T: Skea Brae
R: polka
M: 2/4
K: Amajor
L: 1/16
E4|:A3B c2 e2|dcBA Bc e2|f2ga eAae|c2 B2 BdcB|
A3B c2 e2|dcBA Bce2|f2ga eAae|1 c2 A2 AdcB:|2 c2A2 A2e2|
|:a3e cdf2|e2f/g/a c2BA|cd2f ecBA|c2B2 B2e2|
a3e cd f2|e2f/g/a c2BA|cd2f ecBA|1 c A2 A2e2:|2 c2A2 AdcB|
|:AGAB cBce|dcBA Bc e2|f2ga eAae|c2B2 BdcB|
AGAB cBce|dcBA Bc e2|f2ga eAae|1 c2A2 AdcB:|2 c2A2 A2e2|
|:ac'ea gbeg|f/g/adf ceae|defg aAae|c2B2 B2e2|
ac'ea gbeg|f/g/adf ceae|defg aAae|1 c2A2 A2e2:|2 c2A2 A4|

